X:1
T:[ID 10-60]
T:[ID 10-60]
T:Bezeichnung standardisiert: Anglaise Angeloise
T:Urheber unbekannt Datum in der hier transkribierten schriftlichen Quelle: 1799
C:Urheber unbekannt
C:Datum in der hier transkribierten schriftlichen Quelle: 1799
%%score 1 2
L:1/8
M:3/8
K:A
V:1 treble 
V:2 treble nm="Secondo"
V:1
 e/d/ | cde | e2 c | f2 a | e2 e/d/ | cde | e2 c | d2 B | A2 :: B/e/ | gg/a/f/^d/ | ee/f/^d/f/ | %12
 ee/f/^d/f/ | e2 e/d/ | c/d/e/f/g/a/ | f/e/d/c/B/A/ | B/c/d/c/d/B/ | A2 :: e | e2 c | a2 f | e2 c | %22
 d2 B | e2 c | a2 f | ee/c/d/B/ | A2 :| %27
V:2
 !fermata!c/B/ | ABc | c2 A | d2 f | c2 c/B/ | ABc | c2 A | B2 D | C2 :: G/G/ | BB/c/A/F/ | %11
"^1)" x3 | x3 | x3 | x3 | x3 | x3 | x2 :: c | c2 A | f2 d | c2 A | B2 G | c2 A | f2 d | ee/c/d/B/ | %26
 C2 :| %27

